X:1039
T:Gentle Maiden #2, The
C:Joe Buchanan's Scottish Tome - Page 629.2-630.1
I:629 2
Z:Carl Allison
R:Waltz
L:1/4
M:3/4
K:G
D | "G"G>A G | "D7"F E D | "G7"d3 | "C"e f g |
"G"d>c B | "D7"(A2 G) | "Am"E3 | "D7"(E2 F) |
"G"G>A G | "D7"F E D | "G"d3 | "C"e f g |
"G"d>c B | "D7"(A2 G) | "G"G3- | "G"G2 d |
"G"d>e f | "G7"g2 g | "C"(g2 g) | "A7"g f e | 
"G"d>c B | "D7"(A2 G) | "C"E3- | "A7"E2 "D7"F | 
"G"G>A G | "D7"F E D | "G7/D"d3 | "C"e f g |
"G"d>c B | "D7"(A2 G) | "G"G3- | "G"G2 |]

